X: 1380
T: the Spinners Delight   #2
R: reel
%S: s:2 b:14(7+7)
B: O'Neill's 1850 #1380
O: J.O'Neill
Z: Bob Safranek, rjs@gsp.org
Z: Compacted by repeat with multiple endings [JC]
M: C|
L: 1/8
K: A
(ed) |: c2(cB) Acec | dcBA GABd |\
[1 (cA)ce (fd)fa | ((3gab) (eg) afed :|\
[2 ((3cBA) ((3cde) dBGB | AcBG A2 |] (cd) | e2(ag) aecA |
|  B2(Bc) dcBc | Aced ceba | ge^de fe=dB \
|| e2(ag) aecA | d2(fg) fgaf | e2(gf) edcB | AcBG A2 |]
